!!!COM: Music21
!!!OTL: waltz_Red-Rose--The
!!!OMV: waltz_Red-Rose--The
**kern
*clefG2
*k[f#]
*G:
*M3/4
=1
2.b
=
2b
4cc
=
2b
4dd
=
2dd
4cc
=
4b
4a
4g
=
4f#
4g
4e
=
2.d
=
8dL
8eJ
8f#L
8gJ
8aL
8bJ
=
2.cc
=
4b
8aL
8g#XJ
8aL
8ccJ
=
2cc
4cc#X
!!linebreak:original
=
2dd
4cc
=
4b
4a
4g
=
8f#L
8aJ
4g
4e
=
2.d
=
4dd
4cc#X
4ccn
=
2.b
=
2b
4cc
=
2b
4dd
=
2dd
4cc
=
4b
4a
4g
=
4f#
4g
4e
=
2.d
!!linebreak:original
=
2g
4f#
=
4e
4d#X
4e
=
2f#
4d
=
4g
4f#
4g
=
2a
4b
=
2cc
4a
=
2f#
4d
=
4d
4c#X
4d
=
2.g
=||
4d
4e
4f#
=
4g
4a
4b
!!linebreak:original
=
8cc
4.ff#
4cc
=
2ee
4dd
=
4d
4g
4cc
=
2b
4a
=
4d
4f#
4c#X
=
2e
4d
=
4d
4e
4f#
=
4g
4a
4b
=
8cc
4.ff#
4cc
=
2ee
4dd
=
4d
4g
4cc
!!linebreak:original
=
2b
8bL
8aJ
=
2.g
=
4g
4f#
4e
=||
4d
4e
4f#
=
4g
4a
4b
=
8cc
4.ff#
4cc
=
2ee
4dd
=
4d
4g
4cc
=
2b
4a
=
4d
4f#
4c#X
=
2e
4d
!!linebreak:original
=
4d
4e
4f#
=
4g
4a
4b
=
8cc
4.ff#
4cc
=
2ee
4dd
=
4d
4g
4cc
=
2b
8bL
8aJ
=
2.g
=
4g
4r
8bL
8ccJ
=||
4dd
4cc
4b
=
4a
4g
4c
=
2e
4d#X
!!linebreak:original
=
2e
8aL
8bJ
=
4cc
4b
4a
=
4g
4f#
4e
=
4d
8dL
8ccJ
8ddL
8f#J
=
2d
8bL
8ccJ
=
4dd
4cc
4b
=
4a
4g
4c
=
2c
4c
=
2.cc
=
4B
4c
4c#X
!!linebreak:original
=
8d
2b
8a
=
2.g
=
2.g
=||
4dd
4cc
4b
=
4a
4g
4c
=
2e
4d#X
=
2e
8aL
8bJ
=
4cc
4b
4a
=
4g
4f#
4e
=
4d
8dL
8ccJ
8ddL
8f#J
=
2d
8bL
8ccJ
!!linebreak:original
=
4dd
4cc
4b
=
4a
4g
4c
=
2c
4c
=
2.cc
=
4B
4c
4c#X
=
8d
2b
8a
=
2.g
=
2.g
=||
2.d
=
2e
4d
=
4f#
8.f#L
16gJk
8.f#L
16dJk
!!linebreak:original
=
2.A
=
4B
4c
4d
=
4e
4B
4d
=
4b
8.bL
16ccJk
8bL
8gJ
=
2.d
=
4d
4g
4b
=
2dd
4dd
=
4dd
4cc
4a
=
2.e
=
4B
4c
4c#X
=
8d
4.b
4a
!!pagebreak:original
=
2.g
=||
*M3/4
2.b
=
2b
4cc
=
2b
4dd
=
2dd
4cc
=
4b
4a
4g
=
4f#
4g
4e
=
2.d
=
8dL
8eJ
8f#L
8gJ
8aL
8bJ
=
2.cc
=
4b
8aL
8g#XJ
8aL
8ccJ
!!linebreak:original
=
2cc
4cc#X
=
2dd
4cc
=
4b
4a
4g
=
8f#L
8aJ
4g
4e
=
2.d
=
4dd
4cc#X
4ccn
=
2.b
=
2b
4cc
=
2b
4dd
=
2dd
4cc
=
4b
4a
4g
=
4f#
4g
4e
!!linebreak:original
=
2.d
=
2g
4f#
=
4e
4d#X
4e
=
2f#
4d
=
4g
4f#
4g
=
2a
4b
=
2cc
4a
=
2f#
4d
=
4d
4c#X
4d
=
2.g
=||
4d
4e
4f#
=
4g
4a
4b
!!linebreak:original
=
8cc
4.ff#
4cc
=
2ee
4dd
=
4d
4g
4cc
=
2b
4a
=
4d
4f#
4c#X
=
2e
4d
=
4d
4e
4f#
=
4g
4a
4b
=
8cc
4.ff#
4cc
=
2ee
4dd
=
4d
4g
4cc
!!linebreak:original
=
2b
8bL
8aJ
=
2.g
=
4g
4f#
4e
=||
4d
4e
4f#
=
4g
4a
4b
=
8cc
4.ff#
4cc
=
2ee
4dd
=
4d
4g
4cc
=
2b
4a
=
4d
4f#
4c#X
=
2e
4d
!!linebreak:original
=
4d
4e
4f#
=
4g
4a
4b
=
8cc
4.ff#
4cc
=
2ee
4dd
=
4d
4g
4cc
=
2b
8bL
8aJ
=
2.g
=
4g
4r
8bL
8ccJ
=||
4dd
4cc
4b
=
4a
4g
4c
=
2e
4d#X
!!linebreak:original
=
2e
8aL
8bJ
=
4cc
4b
4a
=
4g
4f#
4e
=
4d
8dL
8ccJ
8ddL
8f#J
=
2d
8bL
8ccJ
=
4dd
4cc
4b
=
4a
4g
4c
=
2c
4c
=
2.cc
=
4B
4c
4c#X
!!linebreak:original
=
8d
2b
8a
=
2.g
=
2.g
=||
4dd
4cc
4b
=
4a
4g
4c
=
2e
4d#X
=
2e
8aL
8bJ
=
4cc
4b
4a
=
4g
4f#
4e
=
4d
8dL
8ccJ
8ddL
8f#J
=
2d
8bL
8ccJ
!!linebreak:original
=
4dd
4cc
4b
=
4a
4g
4c
=
2c
4c
=
2.cc
=
4B
4c
4c#X
=
8d
2b
8a
=
2.g
=
2.g
=||
2.d
=
2e
4d
=
4f#
8.f#L
16gJk
8.f#L
16dJk
!!linebreak:original
=
2.A
=
4B
4c
4d
=
4e
4B
4d
=
4b
8.bL
16ccJk
8bL
8gJ
=
2.d
=
4d
4g
4b
=
2dd
4dd
=
4dd
4cc
4a
=
2.e
=
4B
4c
4c#X
=
8d
4.b
4a
!!linebreak:original
=
2.g
=||
*-
